X: 1
T: The Donegal Lass
R: jig
M: 6/8
L: 1/8
K: Dmaj
Ace aed|edB A3|GBd G3|FAd F3|
Ace aed|cdB A2a|aed cdB|ABG A3:|
GBd G3|FAd F3|e2e ecA|e2e ecA|
GBd G3|FAd F2a|aed cdB|ABG A3:|


Tune 1497	Setting 14886

